src/categories-icons-sprite/categories/svg-cat-shoes-men.svg

<svg width="33" height="17" viewBox="0 0 33 17" fill="none" xmlns="http://www.w3.org/2000/svg">
<path class="p-3E322E" d="M30.3482 16.9999H20.8408V11.3333H30.3482V16.9999Z" fill="#4D98CB"/>
<path class="p-68544F" d="M31.8025 9.4443L30.348 13.2221C27.3258 13.2221 28.1947 13.2221 25.248 13.2221C23.2269 13.2221 21.1806 13.8265 19.4807 14.9598C19.3106 15.0731 19.1406 15.1864 18.9517 15.2808C17.0629 16.4143 14.9095 16.9998 12.7184 16.9998H0V14.7898C0 14.2609 0.0567293 13.732 0.170062 13.2221C0.188825 13.2032 1.68116 12.0887 2.68221 11.3332H12.7184C14.0029 11.3332 15.2495 10.9554 16.3261 10.2376C17.1572 9.6709 18.0451 9.19868 18.9517 8.82091C20.9161 7.9898 23.0759 7.55542 25.248 7.55542H30.1402L31.7835 9.40646C31.7835 9.42535 31.7835 9.42535 31.7646 9.4443H31.8025Z" fill="#76B7E2"/>
<path class="p-53433F" d="M31.8029 9.4443L30.3484 13.2221C27.3262 13.2221 28.1951 13.2221 25.2484 13.2221C23.2273 13.2221 21.181 13.8265 19.4811 14.9598C19.311 15.0731 19.141 15.1864 18.9521 15.2808V8.82091C20.9165 7.9898 23.0763 7.55542 25.2484 7.55542H30.1406L31.7839 9.40646C31.7839 9.42535 31.7839 9.42535 31.765 9.4443H31.8029Z" fill="#58ADE5"/>
<path class="p-966641" d="M32.2367 6.61107C32.2367 7.32885 32.1612 8.02773 31.9912 8.72662L31.8023 9.44439H25.2479C23.0568 9.44439 20.8783 9.9355 18.9516 10.8988C18.4039 11.1632 17.8938 11.4655 17.3838 11.8055C15.9861 12.731 14.3806 13.2221 12.7183 13.2221H0.169922C0.264366 12.8065 0.377698 12.4288 0.547635 12.051C0.547635 11.9943 0.585475 11.9377 0.604364 11.881C0.698808 11.6922 0.793189 11.5221 0.887633 11.3333C1.20881 10.7477 0.871232 10.8908 1.7425 10.4552C4.0568 9.29805 5.28872 9.29805 7.23433 9.29805C8.91537 9.29805 10.5839 6.76212 11.585 5.42108L11.6417 5.34546L12.8883 5.19441L12.775 3.83436L13.0961 3.39998C13.4361 2.9656 13.795 2.54999 14.1916 2.22888L15.9483 2.15338L15.7216 1.11444C16.7039 0.528886 17.7995 0.169999 18.9517 0.0566664C19.2727 0.0189518 19.5751 6.2928e-05 19.8961 6.2928e-05H20.8405V0.944502C20.8405 2.51221 22.169 3.77782 23.7368 3.77782H26.5182C26.7072 2.8711 27.0128 2.15689 27.4449 1.3069C28.3137 0.419127 28.119 0 29.4034 0H29.989L31.2923 2.62554C31.9157 3.81547 32.2367 5.19441 32.2367 6.61107Z" fill="#B9DFFC"/>
<path class="p-7E5436" d="M32.2373 6.61107C32.2373 7.32885 32.1618 8.02773 31.9917 8.72662L31.8029 9.44439H25.2484C23.0574 9.44439 20.8789 9.9355 18.9521 10.8988V0.0566035C19.2732 0.0188889 19.5755 0 19.8966 0H20.841V0.944439C20.841 2.51215 22.1695 3.77776 23.7373 3.77776H26.5187C26.574 2.6138 26.574 2.6138 26.9508 1.37882C27.2893 0.269208 28.1195 0 29.4039 0H29.9895L31.2928 2.62554C31.9162 3.81547 32.2373 5.19442 32.2373 6.61107Z" fill="#A1D1FD"/>
<path class="p-53433F" d="M18.669 4.06115L17.3469 5.38337L14.1924 2.229C14.6646 1.77567 15.1747 1.3979 15.7224 1.1145L18.669 4.06115Z" fill="#76B7E2"/>
<path class="p-53433F" d="M15.8358 6.89421L14.5137 8.21643L11.6426 5.34533L12.7758 3.83423L15.8358 6.89421Z" fill="#76B7E2"/>
</svg>

<svg width="33" height="17" fill="none" xmlns="http://www.w3.org/2000/svg"><path class="p-3E322E" d="M30.348 17h-9.507v-5.667h9.507V17z" fill="#4D98CB"/><path class="p-68544F" d="M31.802 9.444l-1.454 3.778h-5.1a10.49 10.49 0 00-5.767 1.738c-.17.113-.34.226-.53.32A12.1 12.1 0 0112.719 17H0v-2.21c0-.53.057-1.058.17-1.568.019-.019 1.511-1.133 2.512-1.889h10.036a6.482 6.482 0 003.608-1.095 14.716 14.716 0 012.626-1.417 16.226 16.226 0 016.296-1.266h4.892l1.643 1.851c0 .02 0 .02-.018.038h.037z" fill="#76B7E2"/><path class="p-53433F" d="M31.803 9.444l-1.455 3.778h-5.1a10.49 10.49 0 00-5.767 1.738c-.17.113-.34.226-.529.32V8.82a16.226 16.226 0 016.296-1.265h4.893l1.643 1.851c0 .02 0 .02-.019.038h.038z" fill="#58ADE5"/><path class="p-966641" d="M32.237 6.611c0 .718-.076 1.417-.246 2.116l-.189.717h-6.554c-2.191 0-4.37.491-6.296 1.455-.548.264-1.058.567-1.568.907a8.414 8.414 0 01-4.666 1.416H.17c.094-.415.208-.793.378-1.171 0-.057.037-.113.056-.17.095-.189.19-.359.284-.548.32-.585-.017-.442.854-.878C4.058 9.298 5.29 9.298 7.234 9.298c1.681 0 3.35-2.536 4.351-3.877l.057-.076 1.246-.15-.113-1.36.321-.435c.34-.434.699-.85 1.096-1.171l1.756-.076-.226-1.039a7.77 7.77 0 013.23-1.057c.32-.038.623-.057.944-.057h.944v.945c0 1.567 1.329 2.833 2.897 2.833h2.781c.19-.907.495-1.621.927-2.471C28.314.419 28.119 0 29.403 0h.586l1.303 2.626c.624 1.19.945 2.568.945 3.985z" fill="#B9DFFC"/><path class="p-7E5436" d="M32.237 6.611c0 .718-.075 1.417-.245 2.116l-.19.717h-6.554c-2.19 0-4.37.491-6.296 1.455V.057c.321-.038.623-.057.945-.057h.944v.944c0 1.568 1.328 2.834 2.896 2.834h2.782c.055-1.164.055-1.164.432-2.4C27.289.27 28.119 0 29.404 0h.585l1.304 2.626c.623 1.19.944 2.568.944 3.985z" fill="#A1D1FD"/><path class="p-53433F" d="M18.669 4.061l-1.322 1.322-3.155-3.154a6.602 6.602 0 011.53-1.115l2.947 2.947zM15.836 6.894l-1.322 1.322-2.871-2.87 1.133-1.512 3.06 3.06z" fill="#76B7E2"/></svg>
